X:444
T:El Barqueru
Z:Jack Campin, http://www.campin.me.uk/
F:Jack Campin's Nine-Note Tunebook
% last edit 23-12-2013
G:"Salea" from Llanes, Asturias
B:Musica Tradicional Asturiana, (C) Tello & Tito. Asturies, 2001
M:3/8
L:1/8
Q:3/8=50
K:AMin
E/|A^GA|B/c/ AA/B/|cdc|BB3/:|
E/|A^GA|B/c/ A>B  |AGF|EE3/
E/|A^GA|B/c/ A>B  |cdc|BB3/
E/|A^GA|B/c/ A>B  |AGF|EE3/|]

